assets/logos/SVG/color/andyet-large.svg

<?xml version="1.0" encoding="UTF-8" standalone="no"?>
<svg width="1116px" height="600px" viewBox="0 0 1116 600" version="1.1" xmlns="http://www.w3.org/2000/svg" xmlns:xlink="http://www.w3.org/1999/xlink" xmlns:sketch="http://www.bohemiancoding.com/sketch/ns">
    <!-- Generator: Sketch 3.0.3 (7891) - http://www.bohemiancoding.com/sketch -->
    <title>Untitled 2</title>
    <desc>Created with Sketch.</desc>
    <defs></defs>
    <g id="Page-1" stroke="none" stroke-width="1" fill="none" fill-rule="evenodd" sketch:type="MSPage">
        <g id="andyet-small" sketch:type="MSLayerGroup">
            <g id="Page-1" sketch:type="MSShapeGroup">
                <g id="andyet">
                    <g id="Group">
                        <path d="M183.09567,193.109244 L259.080936,284.481793 L261.538183,281.757067 C269.734129,272.885154 277.494936,264.201681 284.774532,255.655717 C292.074605,247.15559 310.770165,226.911128 317.512239,218.217469 L347.393395,272.253628 C342.279248,279.505984 335.578129,287.93481 327.274679,297.5452 C319.001945,307.165775 309.111523,318.212376 297.618771,330.715559 L375.820679,426.727782 L296.548844,426.727782 L254.442881,375.329768 C215.792422,415.044563 175.621541,434.886682 133.904642,434.886682 C96.5186423,434.886682 64.8099083,423.030303 38.7579633,399.246244 C13.238422,375.329768 0.486330275,345.775401 0.486330275,310.603514 C0.486330275,268.714031 20.7023119,233.908836 61.1701101,206.162465 L88.7834309,187.400051 C89.1520185,187.226891 89.7868071,186.763433 90.6877982,186.024955 L94.5118899,183.055768 C66.6426054,153.491215 52.6926055,124.400305 52.6926055,95.7372042 C52.6926055,67.4509806 61.9994309,44.4257703 80.5772476,26.6666667 C99.5338899,8.89737715 123.968147,0.00509294627 153.839064,0.00509294627 C182.834587,0.00509294627 206.782514,8.60707921 225.734037,25.8365164 C244.68556,43.0914184 254.16644,64.82302 254.16644,91.1077158 C254.16644,109.238604 248.980624,125.663356 238.583395,140.341227 C228.375578,155.044563 209.874551,172.615228 183.09567,193.109244 L183.09567,193.109244 L183.09567,193.109244 Z M132.517321,228.739496 L128.959431,231.189203 C102.897248,249.146932 85.123156,263.549784 75.6576327,274.407945 C66.3610458,285.301757 61.7229911,296.827095 61.7229911,308.963585 C61.7229911,326.376368 68.7363851,342.332569 82.7631744,356.816908 C97.3326054,370.78686 113.371266,377.759104 130.889395,377.759104 C155.477229,377.759104 183.832844,361.726508 215.889688,329.640947 L132.517321,228.739496 L132.517321,228.739496 Z M146.196,148.510313 L151.381817,144.690604 C160.314936,138.018844 167.696917,132.146677 173.527761,127.170868 C179.348367,122.179781 183.561523,117.962821 186.110917,114.509804 C191.568055,107.822765 194.306863,99.5518206 194.306863,89.778457 C194.306863,78.7114848 190.569798,69.7478994 183.100789,62.8367709 C175.626661,55.9562007 165.592899,52.4980901 153.019982,52.4980901 C141.542587,52.4980901 131.892771,56.0427807 124.044936,63.106697 C116.217578,69.8293861 112.280863,78.4313727 112.280863,88.9533994 C112.280863,101.288515 117.210715,113.425007 127.055064,125.403616 L142.899193,144.435956 C143.452073,145.337408 144.547596,146.712503 146.196,148.510313 L146.196,148.510313 L146.196,148.510313 Z" id="Shape" fill="#EB3B95"></path>
                        <path d="M285.030495,140.901452 C299.953156,142.398778 313.790532,143.254393 326.465835,143.498854 C339.171853,143.773873 353.260073,143.885918 368.694661,143.885918 C383.591725,143.885918 398.790826,143.773873 414.230532,143.498854 C429.665119,143.254393 444.859101,142.398778 459.781761,140.901452 L459.781761,149.814107 C448.84189,150.812325 438.398587,154.046346 428.421137,159.480519 C418.489761,164.940158 413.503596,173.863 413.503596,186.223581 C413.503596,196.144639 416.713376,209.406672 423.214844,225.979119 C429.665119,242.597402 437.241633,260.417622 445.975101,279.475427 C454.682973,298.568882 463.667285,318.003565 472.856367,337.815126 C482.060807,357.636873 489.412073,375.961293 494.879449,392.803667 C497.38789,387.843137 501.247817,379.674052 506.469468,368.270945 C511.701358,356.872931 517.675541,343.865546 524.386899,329.274255 C531.103376,314.682964 537.860807,299.424497 544.551688,283.590527 C551.293761,267.736185 557.503431,252.880061 563.257486,239.001782 C568.955229,225.113318 573.685431,213.007385 577.407137,202.602496 C581.180037,192.182327 583.043449,185.255921 583.043449,181.777438 C583.043449,175.844156 581.666367,171.128088 578.932679,167.664884 C576.188752,164.196588 572.840752,161.344538 568.832367,159.098548 C564.839339,156.908582 560.124495,155.171887 554.636642,153.908836 C549.174385,152.691622 543.901541,151.321619 538.966569,149.819201 L538.966569,140.906544 C550.392771,142.403871 561.875285,143.259485 573.306605,143.503947 C584.758404,143.778966 596.461046,143.891011 608.424768,143.891011 C619.845851,143.891011 631.098,143.778966 642.042988,143.503947 C652.962387,143.259485 664.178696,142.403871 675.635613,140.906544 L675.635613,149.819201 C661.695851,151.815635 648.124679,160.351413 634.927208,175.441813 C621.745101,190.572956 609.576607,207.792208 598.370532,227.114846 C587.138863,246.427298 577.274037,265.378152 568.827248,283.926662 C560.375339,302.510822 553.899468,316.271963 549.404752,325.199898 C528.533505,368.265852 509.571743,405.179526 492.647449,435.889992 C475.712917,466.610644 460.390954,492.253628 446.717395,512.793481 C433.013119,533.374077 420.557945,549.600204 409.377468,561.476955 C398.181633,573.394448 387.46189,582.403871 377.243835,588.591801 C367.041137,594.795009 357.084165,598.736949 347.403633,600.499108 C337.697505,602.220525 327.602312,603.091418 317.123174,603.091418 C308.164459,603.091418 299.343963,601.833461 290.625853,599.368475 C281.917982,596.893303 274.177651,593.058314 267.486771,587.868602 C260.739578,582.653425 255.251725,576.078432 251.007853,568.169086 C246.815174,560.203718 244.68556,550.832697 244.68556,539.928699 C244.68556,530.017825 248.289523,521.115355 255.482092,513.190731 C262.730973,505.261013 271.300624,501.283422 281.293431,501.283422 C292.74011,501.283422 301.918954,504.135472 308.916991,509.844665 C315.889431,515.518207 319.350055,524.318818 319.350055,536.226127 C319.350055,544.624395 317.353541,551.693405 313.375871,557.397504 C309.40844,563.076139 307.417046,567.170868 307.417046,569.651133 C307.417046,572.630507 311.026129,574.479246 318.259651,575.238095 C325.467578,575.966387 332.547523,576.333079 339.550679,576.333079 C354.457982,576.333079 369.165633,570.262287 383.581486,558.125796 C398.022936,546.004584 410.836459,532.131398 422.037413,516.546982 C433.274202,500.932009 442.345541,486.045327 449.333339,471.958238 C456.321137,457.845684 459.776642,448.780239 459.776642,444.82302 C459.776642,443.330787 458.036092,438.242933 454.570349,429.590018 C451.053413,420.932009 446.338569,409.788643 440.389982,396.129361 C434.385083,382.526101 427.663486,367.32875 420.199596,350.460912 C412.740826,333.603259 405.276936,316.893303 397.823285,300.300484 C390.344037,283.707665 382.869908,267.603768 375.365064,251.998981 C367.921651,236.40438 361.450899,223.142348 355.957927,212.253628 C350.992239,200.891265 346.748367,191.693405 343.267266,184.746626 C339.775927,177.815126 335.542293,172.243443 330.591963,168.031576 C325.616037,163.829896 319.616257,160.488923 312.659174,158.003565 C305.676495,155.533486 296.456697,152.813853 285.025376,149.824293 L285.025376,140.901452 L285.030495,140.901452 L285.030495,140.901452 Z" id="Shape" fill="#11BAEE"></path>
                        <path d="M694.576899,261.263051 C694.576899,287.043545 697.955613,308.33206 704.61578,325.199898 C711.39881,342.021899 719.840476,355.411255 730.08925,365.296664 C740.266351,375.227909 751.195982,382.159409 762.913982,386.10135 C774.621744,390.073848 835.269691,388.714031 852.147911,382.032085 C869.097798,375.35014 884.783232,364.807741 899.245155,350.450725 L911.920458,362.337662 C891.525304,384.135472 870.592625,400.728292 849.18897,412.116119 C827.775083,423.503947 802.132679,429.21314 772.256643,429.21314 C750.817155,429.21314 731.665982,424.99618 714.731452,416.567354 C697.796917,408.174179 683.370827,397.010441 671.41222,383.127069 C659.479208,369.274255 650.40275,353.399542 644.162369,335.57423 C637.916863,317.764196 634.829946,299.414311 634.829946,280.585689 C634.829946,261.777438 637.921982,243.432646 644.162369,225.61752 C650.40275,207.782022 659.479208,191.92768 671.41222,178.064681 C683.370827,164.186402 697.796917,153.043035 714.731452,144.614209 C731.671101,136.205755 750.817155,131.973517 772.256643,131.973517 C811.572607,131.973517 843.22503,142.622867 867.147357,163.931755 C891.018494,185.250828 905.674952,217.697988 911.178167,261.263051 L694.576899,261.263051 L694.576899,261.263051 Z M840.250732,238.99669 C838.709833,225.61752 836.728679,213.613445 834.235595,202.948816 C831.757869,192.294372 827.769964,183.396995 822.323065,176.210848 C816.784018,169.024701 809.565851,163.580341 800.653208,159.867584 C791.658661,156.139547 780.22222,154.270435 766.287577,154.270435 C755.854512,154.270435 746.230292,156.903488 737.527542,162.088108 C728.794071,167.272727 721.350661,173.969952 715.120512,182.14413 C708.88525,190.323402 704.134571,199.480519 700.904309,209.640947 C697.663815,219.801375 696.071726,229.590018 696.071726,238.99669 L840.250732,238.99669 L840.250732,238.99669 Z" id="Shape" fill="#11BAEE"></path>
                        <path d="M890.547524,166.911128 L890.547524,155.019099 C906.47356,154.540362 920.157357,150.57805 931.660351,143.137255 C943.117268,135.701553 953.023048,126.289788 961.500548,114.896868 C969.988292,103.50904 977.052881,90.87344 982.791577,77.0002545 C988.504679,63.1474406 993.618827,49.7784568 998.12378,36.8831169 L1008.53637,36.8831169 L1008.53637,144.614209 L1110.88073,144.614209 L1110.88073,166.911128 L1008.54149,166.911128 L1008.54149,340.030558 C1008.54149,346.483321 1008.95103,352.793481 1009.69844,358.991596 C1010.42537,365.189712 1011.93044,370.766488 1014.16244,375.706646 C1016.40468,380.65699 1019.62982,384.634581 1023.86857,387.593583 C1028.11244,390.57805 1033.96888,392.06519 1041.43277,392.06519 C1056.38615,392.06519 1068.8362,388.841355 1078.75734,382.414056 C1088.74503,375.956201 1098.6764,367.802394 1108.68457,357.866056 L1115.39593,365.296664 C1106.89795,372.737459 1098.6764,380.300484 1090.75178,387.944996 C1082.76573,395.665902 1074.42644,402.59231 1065.7544,408.780239 C1057.01582,414.978355 1047.55541,419.918513 1037.34248,423.615992 C1027.09371,427.344028 1016.06169,429.218233 1004.08261,429.218233 C983.160167,429.218233 968.984917,422.892793 961.515911,410.262287 C954.031542,397.621594 950.294476,382.638146 950.294476,365.296664 L950.294476,166.911128 L890.547524,166.911128 L890.547524,166.911128 Z" id="Shape" fill="#11BAEE"></path>
                    </g>
                </g>
            </g>
        </g>
    </g>
</svg>

<svg width="1116" height="603" xmlns="http://www.w3.org/2000/svg" xmlns:sketch="http://www.bohemiancoding.com/sketch/ns"><title>Untitled 3</title><desc>Created with Sketch.</desc><g sketch:type="MSShapeGroup" fill="none"><path d="M183.096 193.109l75.985 91.373 2.457-2.725c8.196-8.872 15.957-17.555 23.236-26.101 7.3-8.5 25.996-28.745 32.738-37.438l29.881 54.036c-5.114 7.252-11.815 15.681-20.119 25.292-8.273 9.621-18.163 20.667-29.656 33.17l78.202 96.012h-79.272l-42.106-51.398c-38.65 39.715-78.821 59.557-120.538 59.557-37.386 0-69.095-11.856-95.147-35.64-25.52-23.916-38.272-53.471-38.272-88.643 0-41.889 20.216-76.695 60.684-104.441l27.613-18.762c.369-.173 1.003-.637 1.904-1.375l3.824-2.969c-27.869-29.565-41.819-58.655-41.819-87.319 0-28.286 9.307-51.311 27.885-69.071 18.957-17.769 43.391-26.662 73.262-26.662 28.996 0 52.943 8.602 71.895 25.831 18.952 17.255 28.432 38.987 28.432 65.271 0 18.131-5.186 34.556-15.583 49.234-10.208 14.703-28.709 32.274-55.488 52.768zm-50.578 35.63l-3.558 2.45c-26.062 17.958-43.836 32.361-53.302 43.219-9.297 10.894-13.935 22.419-13.935 34.556 0 17.413 7.013 33.369 21.04 47.853 14.569 13.97 30.608 20.942 48.126 20.942 24.588 0 52.943-16.033 85-48.118l-83.372-100.901zm13.679-80.229l5.186-3.82c8.933-6.672 16.315-12.544 22.146-17.52 5.821-4.991 10.034-9.208 12.583-12.661 5.457-6.687 8.196-14.958 8.196-24.731 0-11.067-3.737-20.031-11.206-26.942-7.474-6.881-17.508-10.339-30.081-10.339-11.477 0-21.127 3.545-28.975 10.609-7.827 6.723-11.764 15.325-11.764 25.847 0 12.335 4.93 24.472 14.774 36.45l15.844 19.032c.553.901 1.648 2.277 3.297 4.074z" id="Shape" fill="#EE0788"/><path d="M285.03 140.901c14.923 1.497 28.76 2.353 41.435 2.597 12.706.275 26.794.387 42.229.387 14.897 0 30.096-.112 45.536-.387 15.435-.244 30.629-1.1 45.551-2.597v8.913c-10.94.998-21.383 4.232-31.361 9.666-9.931 5.46-14.918 14.382-14.918 26.743 0 9.921 3.21 23.183 9.711 39.756 6.45 16.618 14.027 34.439 22.76 53.496 8.708 19.093 17.692 38.528 26.881 58.34 9.204 19.822 16.556 38.146 22.023 54.989 2.508-4.961 6.368-13.13 11.59-24.533 5.232-11.398 11.206-24.405 17.917-38.997 6.716-14.591 13.474-29.85 20.165-45.684 6.742-15.854 12.952-30.71 18.706-44.589 5.698-13.888 10.428-25.994 14.15-36.399 3.773-10.42 5.636-17.347 5.636-20.825 0-5.933-1.377-10.649-4.111-14.113-2.744-3.468-6.092-6.32-10.1-8.566-3.993-2.19-8.708-3.927-14.196-5.19-5.462-1.217-10.735-2.587-15.67-4.09v-8.913c11.426 1.497 22.909 2.353 34.34 2.597 11.452.275 23.154.387 35.118.387 11.421 0 22.673-.112 33.618-.387 10.919-.244 22.136-1.1 33.593-2.597v8.913c-13.94 1.996-27.511 10.532-40.708 25.623-13.182 15.131-25.351 32.35-36.557 51.673-11.232 19.312-21.096 38.263-29.543 56.812-8.452 18.584-14.928 32.345-19.422 41.273-20.871 43.066-39.833 79.98-56.757 110.69-16.935 30.721-32.256 56.364-45.93 76.903-13.704 20.581-26.159 36.807-37.34 48.683-11.196 11.917-21.916 20.927-32.134 27.115-10.203 6.203-20.16 10.145-29.84 11.907-9.706 1.721-19.801 2.592-30.28 2.592-8.959 0-17.779-1.258-26.497-3.723-8.708-2.475-16.448-6.31-23.139-11.5-6.747-5.215-12.235-11.79-16.479-19.7-4.193-7.965-6.322-17.336-6.322-28.24 0-9.911 3.604-18.813 10.797-26.738 7.249-7.93 15.819-11.907 25.811-11.907 11.447 0 20.626 2.852 27.624 8.561 6.972 5.674 10.433 14.474 10.433 26.381 0 8.398-1.997 15.467-5.974 21.171-3.967 5.679-5.959 9.773-5.959 12.254 0 2.979 3.609 4.828 10.843 5.587 7.208.728 14.288 1.095 21.291 1.095 14.907 0 29.615-6.071 44.031-18.207 14.441-12.121 27.255-25.994 38.456-41.579 11.237-15.615 20.308-30.502 27.296-44.589 6.988-14.113 10.443-23.178 10.443-27.135 0-1.492-1.741-6.58-5.206-15.233-3.517-8.658-8.232-19.801-14.18-33.461-6.005-13.603-12.726-28.801-20.19-45.668-7.459-16.858-14.923-33.568-22.376-50.16-7.479-16.593-14.953-32.697-22.458-48.302-7.443-15.595-13.914-28.857-19.407-39.745-4.966-11.362-9.21-20.56-12.691-27.507-3.491-6.931-7.725-12.503-12.675-16.715-4.976-4.202-10.976-7.543-17.933-10.028-6.983-2.47-16.202-5.19-27.634-8.179v-8.923h.005z" id="Shape" fill="#00B0E9"/><path d="M694.577 261.263c0 25.78 3.379 47.069 10.039 63.937 6.783 16.822 15.225 30.211 25.473 40.097 10.177 9.931 21.107 16.863 32.825 20.805 11.708 3.972 72.356 2.613 89.234-4.069 16.95-6.682 32.635-17.224 47.097-31.581l12.675 11.887c-20.395 21.798-41.328 38.391-62.731 49.778-21.414 11.388-47.056 17.097-76.932 17.097-21.439 0-40.591-4.217-57.525-12.646-16.935-8.393-31.361-19.557-43.319-33.44-11.933-13.853-21.009-29.728-27.25-47.553-6.246-17.81-9.332-36.16-9.332-54.989 0-18.808 3.092-37.153 9.332-54.968 6.24-17.835 15.317-33.69 27.25-47.553 11.959-13.878 26.385-25.022 43.319-33.45 16.94-8.408 36.086-12.641 57.525-12.641 39.316 0 70.968 10.649 94.891 31.958 23.871 21.319 38.528 53.766 44.031 97.331h-216.601zm145.674-22.266c-1.541-13.379-3.522-25.383-6.015-36.048-2.478-10.654-6.466-19.552-11.913-26.738-5.539-7.186-12.757-12.631-21.67-16.343-8.995-3.728-20.431-5.597-34.366-5.597-10.433 0-20.057 2.633-28.76 7.818-8.733 5.185-16.177 11.882-22.407 20.056-6.235 8.179-10.986 17.336-14.216 27.497-3.24 10.16-4.833 19.949-4.833 29.356h144.179z" fill="#00B0E9"/><path d="M890.548 166.911v-11.892c15.926-.479 29.61-4.441 41.113-11.882 11.457-7.436 21.363-16.847 29.84-28.24 8.488-11.388 15.552-24.023 21.291-37.897 5.713-13.853 10.827-27.222 15.332-40.117h10.413v107.731h102.344v22.297h-102.339v173.119c0 6.453.41 12.763 1.157 18.961.727 6.198 2.232 11.775 4.464 16.715 2.242 4.95 5.467 8.928 9.706 11.887 4.244 2.984 10.1 4.472 17.564 4.472 14.953 0 27.403-3.224 37.325-9.651 9.988-6.458 19.919-14.612 29.927-24.548l6.711 7.431c-8.498 7.441-16.72 15.004-24.644 22.648-7.986 7.721-16.325 14.647-24.997 20.835-8.739 6.198-18.199 11.138-28.412 14.836-10.249 3.728-21.281 5.602-33.26 5.602-20.922 0-35.098-6.325-42.567-18.956-7.484-12.641-11.221-27.624-11.221-44.966v-198.386h-59.747z" fill="#00B0E9"/></g></svg>
